icons/HSB-Collections/64x64/apps/tomato.svg

<svg xmlns="http://www.w3.org/2000/svg" width="64" height="64" version="1">
 <path style="opacity:0.2" d="M 59.96,32.886 A 28,28 0 0 1 32,60.102 28,28 0 0 1 4.04,33.214 28,28 0 0 0 4,34 28,28 0 0 0 32,62 28,28 0 0 0 60,34 28,28 0 0 0 59.96,32.886 Z"/>
 <circle style="fill:#e74c3c" cx="32" cy="33" r="28"/>
 <path style="opacity:0.2;fill-rule:evenodd" d="m 26.512,2.0018865 c -0.18788,0.0077 -0.37908,0.039706 -0.56836,0.098514 -1.00944,0.31366 -1.56946,1.26434 -1.25562,2.1314 l 0.78762,2.1762 C 14.05944,7.4750005 7.99964,19.154 7.99964,19.154 c 0,0 3.8198,0.6966 13.0328,-4.238 2.5598,-1.37108 4.0356,-2.8448 4.8778,-4.1784 -0.17408,1.37562 -0.14856,3.1392 0.25782,5.3886 1.022,5.6498 5.286,9.8738 5.286,9.8738 0,0 5.1614,-8.311 -0.37326,-16.457 8.164,5.377 20.92,3.0402 20.92,3.0402 0,0 -5.7146,-5.2571995 -11.7816,-6.5675995 -4.5272,-0.97782 -8.695,-0.33908 -10.862,0.157222 -0.0013,-0.16057 -0.02888,-0.32302 -0.08662,-0.48242 l -0.938,-2.5912 c -0.256,-0.7044 -1.006,-1.1306 -1.82,-1.0974 z"/>
 <path style="fill:#a6ef4d;fill-rule:evenodd" d="m 26.512,1.0018865 c -0.18788,0.0077 -0.37908,0.039706 -0.56836,0.098514 -1.00944,0.31366 -1.56946,1.26434 -1.25562,2.1314 l 0.78762,2.1762 c -11.4162,1.067 -17.476,12.7467995 -17.476,12.7467995 0,0 3.8198,0.6966 13.0328,-4.238 2.5598,-1.37108 4.0356,-2.8448 4.8778,-4.1783995 C 25.73616,11.11402 25.76168,12.8776 26.16806,15.127 c 1.022,5.649 5.286,9.873 5.286,9.873 0,0 5.1614,-8.311 -0.37326,-16.4569995 8.164,5.3769995 20.92,3.0401995 20.92,3.0401995 0,0 -5.7146,-5.9228 -11.7816,-7.2332 -4.5272,-0.97782 -8.695,0.3265205 -10.862,0.8228225 -0.0013,-0.16057 -0.02888,-0.32302 -0.08662,-0.48242 l -0.938,-2.5912 c -0.256,-0.7044 -1.006,-1.13058 -1.82,-1.0974 z"/>
 <path style="fill:#ffffff;fill-rule:evenodd;opacity:0.1" d="M 26.511719 1.0019531 C 26.323839 1.0096531 26.132639 1.0408014 25.943359 1.0996094 C 24.933919 1.4132694 24.37366 2.3653619 24.6875 3.2324219 L 24.691406 3.2402344 C 24.872496 2.7312128 25.320774 2.2930632 25.943359 2.0996094 C 26.132639 2.0408014 26.323839 2.0096531 26.511719 2.0019531 C 27.325719 1.9687731 28.076031 2.3952094 28.332031 3.0996094 L 29.271484 5.6894531 C 29.329224 5.8488531 29.356122 6.011305 29.357422 6.171875 C 31.524422 5.675573 35.69155 4.3717894 40.21875 5.3496094 C 44.89464 6.3595462 49.293246 10.04841 51.095703 11.714844 C 51.627076 11.641844 52 11.583984 52 11.583984 C 52 11.583984 46.28575 5.6600094 40.21875 4.3496094 C 35.69155 3.3717894 31.524422 4.675573 29.357422 5.171875 C 29.356122 5.011305 29.329224 4.8488531 29.271484 4.6894531 L 28.332031 2.0996094 C 28.076031 1.3952094 27.325719 0.96877313 26.511719 1.0019531 z M 25.128906 5.4511719 C 13.939579 6.7212192 8 18.154297 8 18.154297 C 8 18.154297 8.2751962 18.173674 8.578125 18.179688 C 10.262912 15.428916 15.988853 7.2949594 25.476562 6.4082031 L 25.128906 5.4511719 z M 31.080078 9.5429688 C 32.926784 12.26098 33.568881 14.989793 33.623047 17.429688 C 33.718672 15.20477 33.349971 12.678345 32.015625 10.111328 C 31.698731 9.9314657 31.38506 9.743837 31.080078 9.5429688 z M 25.910156 10.738281 C 25.885226 10.777757 25.846365 10.81966 25.820312 10.859375 C 25.808568 11.161103 25.8148 11.491637 25.822266 11.824219 C 25.838256 11.438156 25.867406 11.076101 25.910156 10.738281 z"/>
</svg>

<svg xmlns="http://www.w3.org/2000/svg" width="64" height="64" version="1">
 <circle style="opacity:0.2" cx="32" cy="34" r="28"/>
 <circle style="fill:#e74c3c" cx="32" cy="33" r="28"/>
 <path style="fill:#ffffff;opacity:0.1" d="M 32 5 A 28 28 0 0 0 4 33 A 28 28 0 0 0 4.0352 33.5 A 28 28 0 0 1 32 6 A 28 28 0 0 1 59.982 33.252 A 28 28 0 0 0 60 33 A 28 28 0 0 0 32 5 z"/>
 <path style="opacity:0.2" d="M 25.94,2.1 C 24.93,2.42 24.38,3.37 24.69,4.23 L 25.48,6.41 C 14.06,7.47 8,19.16 8,19.16 8,19.16 11.82,19.85 21.03,14.92 23.59,13.55 25.07,12.07 25.91,10.74 25.74,12.11 25.76,13.88 26.17,16.13 27.19,21.78 31.45,26 31.45,26 31.45,26 36.62,17.69 31.08,9.54 39.24,14.92 52,12.58 52,12.58 52,12.58 46.29,6.66 40.22,5.35 35.69,4.37 31.54,5.51 29.38,6 L 29.27,5.69 28.33,3.1 C 28.08,2.4 27.34,2 26.82,2 26.31,2 26.13,2.04 25.94,2.1 Z"/>
 <path style="fill:#a6ef4d" d="M 25.94,1.1 C 24.93,1.42 24.38,2.37 24.69,3.23 L 25.48,5.41 C 14.06,6.47 8,18.16 8,18.16 8,18.16 11.82,18.85 21.03,13.92 23.59,12.55 25.07,11.07 25.91,9.74 25.74,11.11 25.76,12.88 26.17,15.13 27.19,20.78 31.45,25 31.45,25 31.45,25 36.62,16.69 31.08,8.54 39.24,13.92 52,11.58 52,11.58 52,11.58 46.29,5.66 40.22,4.35 35.69,3.37 31.54,4.51 29.38,5 L 29.27,4.69 28.33,2.1 C 28.08,1.4 27.34,1 26.82,1 26.31,1 26.13,1.04 25.94,1.1 Z"/>
 <path style="fill:#ffffff;opacity:0.2" d="M 26.82,1 C 26.31,1 26.13,1.04 25.94,1.1 24.93,1.42 24.38,2.37 24.69,3.23 L 24.69,3.24 C 24.87,2.73 25.32,2.3 25.94,2.1 26.13,2.04 26.31,2 26.82,2 27.34,2 28.08,2.4 28.33,3.1 L 29.27,5.69 29.38,6 C 31.54,5.51 35.69,4.37 40.22,5.35 44.86,6.35 49.26,10.02 51.1,11.71 51.63,11.64 52,11.58 52,11.58 52,11.58 46.29,5.66 40.22,4.35 35.69,3.37 31.54,4.51 29.38,5 L 29.27,4.69 28.33,2.1 C 28.08,1.4 27.34,1 26.82,1 Z M 25.13,5.45 C 13.94,6.72 8,18.16 8,18.16 8,18.16 8.21,18.18 8.57,18.19 10.3,15.37 16.06,7.28 25.48,6.41 Z M 31.08,9.54 C 32.9,12.21 33.56,14.91 33.63,17.32 33.71,15.12 33.33,12.63 32.02,10.11 31.7,9.93 31.39,9.74 31.08,9.54 Z"/>
</svg>
